X:54
T:Sarkynyt Onni  (harmony)
M:3/4
L:1/4
Q:1/4=150
R:waltz
K:Dm
z |: "Dm" d3 | d3 | "Gm" g3 | g3 | "A7" A3 | ^c2 A |
[1 "Dm" D F G | A B A :|[2 D F A | d3 || !
|: "Dm" d3 | "A7" a2 d | "Gm" g3 | G3 | "A7" A3 | e2 A |
"Dm" d3 | d "D7" a ^f | "Adim" (^f2 "Gm" f) | g3 | "Dm" d3 | !
[1 a2 d | "Gm" B3 | "Ddim" =B3 | "A7" ^c3 | a3 :|
[2 A2 d | "A7" e3 | A3 | "Dm" d a f | d) z z ||

